Icons/svg/switchgui.svg

<svg xmlns="http://www.w3.org/2000/svg" width="417" height="308" viewBox="0 0 417 308"><path fill="#31A6E0" d="M402 0h-387c-8.3 0-15 6.7-15 15v278c0 8.3 6.7 15 15 15h387c8.3 0 15-6.7 15-15v-278c0-8.3-6.7-15-15-15zm-50 25h35v34h-35v-34zm-322 253v-195h357v195h-357z"/></svg>

<?xml version="1.0" encoding="utf-8"?>
<!-- Generator: Adobe Illustrator 18.1.1, SVG Export Plug-In . SVG Version: 6.00 Build 0)  -->
<!DOCTYPE svg PUBLIC "-//W3C//DTD SVG 1.1//EN" "http://www.w3.org/Graphics/SVG/1.1/DTD/svg11.dtd">
<svg version="1.1" id="Layer_1" xmlns="http://www.w3.org/2000/svg" xmlns:xlink="http://www.w3.org/1999/xlink" x="0px" y="0px"
	 viewBox="0 0 417 308" enable-background="new 0 0 417 308" xml:space="preserve">
<path fill="#31A6E0" d="M402,0H15C6.7,0,0,6.7,0,15v278c0,8.3,6.7,15,15,15h387c8.3,0,15-6.7,15-15V15C417,6.7,410.3,0,402,0z
	 M352,25h35v34h-35V25z M30,278V83h357v195H30z"/>
<g>
</g>
<g>
</g>
<g>
</g>
<g>
</g>
<g>
</g>
<g>
</g>
<g>
</g>
<g>
</g>
<g>
</g>
<g>
</g>
<g>
</g>
<g>
</g>
<g>
</g>
<g>
</g>
<g>
</g>
</svg>
